assets/images/verify.svg

<svg height="14" viewBox="0 0 13 14" width="13" xmlns="http://www.w3.org/2000/svg" xmlns:xlink="http://www.w3.org/1999/xlink"><linearGradient id="a" x1="88.28125%" x2="12.860637%" y1="100%" y2="26.202867%"><stop offset="0" stop-color="#1764ff"/><stop offset="1" stop-color="#398bf0"/></linearGradient><g fill="none"><path d="m6.125 1.4765625c-2.56757813 0-4.6484375 2.08085937-4.6484375 4.6484375s2.08085937 4.6484375 4.6484375 4.6484375 4.6484375-2.08085937 4.6484375-4.6484375c0-2.56757812-2.08085937-4.6484375-4.6484375-4.6484375zm1.90039062 5.53847656c-.02597656.02460938-.03691406.06152344-.03144531.09707032l.35410157 2.06582031c.03144531.17910156-.15722657.31445312-.3171875.23105468l-1.85527344-.97480468c-.03144531-.01640625-.06972657-.01640625-.10117188 0l-1.85527343.97480468c-.15996094.08476563-.34863282-.05195312-.3171875-.23105468l.35410156-2.06582031c.00546875-.03554688-.00546875-.07109376-.03144531-.09707032l-1.50117188-1.46289062c-.12988281-.12714844-.05878906-.34726563.12167969-.37324219l2.07402343-.30078125c.03554688-.00546875.06699219-.02734375.08203125-.06015625l.92695313-1.87988281c.08066406-.16269532.31171875-.16269532.39238281 0l.92695313 1.87988281c.01640625.0328125.04648437.0546875.08203125.06015625l2.07402344.30078125c.17910156.02597656.25156249.24609375.12167968.37324219z" fill="none"/><path d="m12.25 6.125c0-.46621094-.3759766-.88183594-.4730469-1.31796875-.0998047-.44980469.0601563-.99121094-.1326172-1.39863281-.1955078-.41289063-.7109375-.62207031-.9884765-.97617188-.2789063-.35683593-.3636719-.91601562-.71230471-1.20175781-.34589844-.28300781-.89960938-.24472656-1.30292969-.44296875-.39785156-.19550781-.7109375-.66308594-1.15253906-.765625-.06425781-.01503906-.12988281-.021875-.19550781-.021875-.37460938 0-.77929688.20234375-1.16757813.20234375s-.79296875-.20234375-1.16757812-.20234375c-.065625 0-.13125.00683594-.19550782.02050781-.44023437.10253907-.7546875.57011719-1.15253906.765625-.40332031.19960938-.95703125.16132813-1.30429687.44433594-.34863282.284375-.43476563.84492188-.71230469 1.20175781-.27753906.35410157-.79296875.56328125-.98847657.97617188-.19140624.40605469-.03144531.94746094-.13261718 1.39863281-.09570313.43613281-.47167969.85175781-.47167969 1.31796875s.37597656.88183594.47304688 1.31796875c.09980468.44980469-.06015625.99121094.13261718 1.39863281.13945313.2953125.44433594.48671875.70683594.70136719.10390625.08476563.20234375.17363281.28027344.27480469l.00136719.00136719c.06835937.08613281.09160156.20097657.06289062.30624997l-.77382812 2.8875c-.01914063.0697266.03417968.138086.10527343.138086h.0109375l1.53945313-.1503907c.01367187-.0013671.02871094-.0027343.04238281-.0027343.09160156 0 .18046875.0287109.25429688.0820312l1.25917968.8996094c.01914063.0136719.04101563.0205078.06289063.0205078.04648437 0 .09296875-.0300781.10664062-.0806641l.44433594-1.6597656c.00683594-.0232422.03007813-.0369141.05332031-.0314453.06425782.0150391.12988282.0205078.19550782.0205078.37460937 0 .77929687-.2023437 1.16757812-.2023437s.79296875.2023437 1.16757813.2023437c.065625 0 .13125-.0068359.19550781-.0205078.01640625-.0041016.0328125.0054688.03691406.021875l.44707031 1.6679688c.01367188.0505859.05878907.080664.10664063.080664.021875 0 .04375-.0068359.06289062-.0205078l1.25917969-.8996094c.07519531-.0533203.1640625-.0820312.25429688-.0820312.01367187 0 .02871093 0 .04238281.0027344l1.53945316.1503906h.0109375c.0710937 0 .124414-.0669922.1052734-.138086l-.765625-2.8560546c-.0314453-.1175782-.0068359-.24335942.0683594-.33906255.0396484-.05058594.0833984-.0984375.13125-.14355469.0478515-.04511718.0984375-.08886718.1503906-.13125.2638672-.21464843.5673828-.40605468.7068359-.70136718.1914063-.40605469.0314454-.94746094.1326172-1.39863282.0970703-.43476562.4730469-.85039062.4730469-1.31660156zm-2.0644531 3.0625c-.0751953.0984375-.153125.19550781-.23515628.28847656-.1859375.21191407-.38828125.40878906-.60703125.58652344-.18730468.153125-.38554687.2939453-.59472656.4197266-.13671875.0833984-.27890625.1599609-.42382812.2296875-.17773438.0861328-.36230469.1613281-.55234375.2269531-.10664063.0369141-.21328125.0697266-.32265625.0984375-.07792969.0205078-.15722657.0396484-.23652344.0574219-.35.0751953-.71367188.1162109-1.08828125.1162109-.37871094 0-.74785156-.0410156-1.10332031-.1203125-.07519532-.0164062-.14902344-.0341797-.22285157-.0546875-.109375-.0287109-.21738281-.0615234-.32265624-.0984375-.18867188-.0642578-.37324219-.1408203-.55234376-.2255859-.13808593-.0669922-.27207031-.1394532-.40332031-.2173829-.21601562-.1285156-.42109375-.2734375-.61523437-.4320312-.21601563-.17773438-.41835938-.371875-.60292969-.58242187-.08339844-.09433594-.16269531-.19277344-.23925781-.29257813-.64394531-.85175781-1.02539063-1.91269531-1.02539063-3.0625 0-2.80957031 2.27636719-5.0859375 5.0859375-5.0859375s5.08594119 2.27636719 5.08594119 5.0859375c.0013635 1.14980469-.3800818 2.21074219-1.0240271 3.0625z" fill="url(#a)"/></g></svg>

<?xml version="1.0" encoding="UTF-8"?>
<svg width="13px" height="14px" viewBox="0 0 13 14" version="1.1" xmlns="http://www.w3.org/2000/svg" xmlns:xlink="http://www.w3.org/1999/xlink">
    <title>认证,徽章,表扬 (1)</title>
    <defs>
        <linearGradient x1="114.703313%" y1="124.28283%" x2="1.49144386%" y2="26.2028673%" id="linearGradient-1">
            <stop stop-color="#1764FF" offset="0%"></stop>
            <stop stop-color="#398BF0" offset="100%"></stop>
        </linearGradient>
        <linearGradient x1="88.28125%" y1="100%" x2="12.8606367%" y2="26.2028673%" id="linearGradient-2">
            <stop stop-color="#1764FF" offset="0%"></stop>
            <stop stop-color="#398BF0" offset="100%"></stop>
        </linearGradient>
    </defs>
    <g id="页面-1" stroke="none" stroke-width="1" fill="none" fill-rule="evenodd">
        <g id="认证,徽章,表扬-(1)" fill-rule="nonzero">
            <path d="M6.125,1.4765625 C3.55742187,1.4765625 1.4765625,3.55742187 1.4765625,6.125 C1.4765625,8.69257813 3.55742187,10.7734375 6.125,10.7734375 C8.69257813,10.7734375 10.7734375,8.69257813 10.7734375,6.125 C10.7734375,3.55742188 8.69257813,1.4765625 6.125,1.4765625 Z M8.02539062,7.01503906 C7.99941406,7.03964844 7.98847656,7.0765625 7.99394531,7.11210938 L8.34804688,9.17792969 C8.37949219,9.35703125 8.19082031,9.49238281 8.03085938,9.40898437 L6.17558594,8.43417969 C6.14414063,8.41777344 6.10585937,8.41777344 6.07441406,8.43417969 L4.21914063,9.40898437 C4.05917969,9.49375 3.87050781,9.35703125 3.90195313,9.17792969 L4.25605469,7.11210938 C4.26152344,7.0765625 4.25058594,7.04101562 4.22460938,7.01503906 L2.7234375,5.55214844 C2.59355469,5.425 2.66464844,5.20488281 2.84511719,5.17890625 L4.91914062,4.878125 C4.9546875,4.87265625 4.98613281,4.85078125 5.00117187,4.81796875 L5.928125,2.93808594 C6.00878906,2.77539062 6.23984375,2.77539062 6.32050781,2.93808594 L7.24746094,4.81796875 C7.26386719,4.85078125 7.29394531,4.87265625 7.32949219,4.878125 L9.40351563,5.17890625 C9.58261719,5.20488281 9.65507812,5.425 9.52519531,5.55214844 L8.02539062,7.01503906 Z" id="形状" fill="url(#linearGradient-1)"></path>
            <path d="M12.25,6.125 C12.25,5.65878906 11.8740234,5.24316406 11.7769531,4.80703125 C11.6771484,4.35722656 11.8371094,3.81582031 11.6443359,3.40839844 C11.4488281,2.99550781 10.9333984,2.78632813 10.6558594,2.43222656 C10.3769531,2.07539063 10.2921875,1.51621094 9.94355469,1.23046875 C9.59765625,0.947460938 9.04394531,0.985742188 8.640625,0.7875 C8.24277344,0.591992188 7.9296875,0.124414063 7.48808594,0.021875 C7.42382813,0.0068359375 7.35820313,0 7.29257813,0 C6.91796875,0 6.51328125,0.20234375 6.125,0.20234375 C5.73671875,0.20234375 5.33203125,0 4.95742188,0 C4.89179688,0 4.82617188,0.0068359375 4.76191406,0.0205078125 C4.32167969,0.123046875 4.00722656,0.590625 3.609375,0.786132813 C3.20605469,0.985742188 2.65234375,0.947460938 2.30507813,1.23046875 C1.95644531,1.51484375 1.8703125,2.07539063 1.59277344,2.43222656 C1.31523438,2.78632813 0.799804688,2.99550781 0.604296875,3.40839844 C0.412890625,3.81445313 0.572851563,4.35585938 0.471679688,4.80703125 C0.375976563,5.24316406 0,5.65878906 0,6.125 C0,6.59121094 0.375976563,7.00683594 0.473046875,7.44296875 C0.572851563,7.89277344 0.412890625,8.43417969 0.605664063,8.84160156 C0.745117188,9.13691406 1.05,9.32832031 1.3125,9.54296875 C1.41640625,9.62773438 1.51484375,9.71660156 1.59277344,9.81777344 L1.59414063,9.81914063 C1.6625,9.90527344 1.68574219,10.0201172 1.65703125,10.1253906 L0.883203125,13.0128906 C0.8640625,13.0826172 0.917382813,13.1509766 0.988476563,13.1509766 L0.999414063,13.1509766 L2.53886719,13.0005859 C2.55253906,12.9992188 2.56757813,12.9978516 2.58125,12.9978516 C2.67285156,12.9978516 2.76171875,13.0265625 2.83554688,13.0798828 L4.09472656,13.9794922 C4.11386719,13.9931641 4.13574219,14 4.15761719,14 C4.20410156,14 4.25058594,13.9699219 4.26425781,13.9193359 L4.70859375,12.2595703 C4.71542969,12.2363281 4.73867188,12.2226562 4.76191406,12.228125 C4.82617188,12.2431641 4.89179688,12.2486328 4.95742188,12.2486328 C5.33203125,12.2486328 5.73671875,12.0462891 6.125,12.0462891 C6.51328125,12.0462891 6.91796875,12.2486328 7.29257813,12.2486328 C7.35820313,12.2486328 7.42382813,12.2417969 7.48808594,12.228125 C7.50449219,12.2240234 7.52089844,12.2335938 7.525,12.25 L7.97207031,13.9179688 C7.98574219,13.9685547 8.03085938,13.9986328 8.07871094,13.9986328 C8.10058594,13.9986328 8.12246094,13.9917969 8.14160156,13.978125 L9.40078125,13.0785156 C9.47597656,13.0251953 9.56484375,12.9964844 9.65507813,12.9964844 C9.66875,12.9964844 9.68378906,12.9964844 9.69746094,12.9992188 L11.2369141,13.1496094 L11.2478516,13.1496094 C11.3189453,13.1496094 11.3722656,13.0826172 11.353125,13.0115234 L10.5875,10.1554688 C10.5560547,10.0378906 10.5806641,9.91210938 10.6558594,9.81640625 C10.6955078,9.76582031 10.7392578,9.71796875 10.7871094,9.67285156 C10.8349609,9.62773438 10.8855469,9.58398438 10.9375,9.54160156 C11.2013672,9.32695313 11.5048828,9.13554688 11.6443359,8.84023438 C11.8357422,8.43417969 11.6757813,7.89277344 11.7769531,7.44160156 C11.8740234,7.00683594 12.25,6.59121094 12.25,6.125 L12.25,6.125 Z M10.1855469,9.1875 C10.1103516,9.2859375 10.0324219,9.38300781 9.95039062,9.47597656 C9.76445312,9.68789063 9.56210937,9.88476562 9.34335937,10.0625 C9.15605469,10.215625 8.9578125,10.3564453 8.74863281,10.4822266 C8.61191406,10.565625 8.46972656,10.6421875 8.32480469,10.7119141 C8.14707031,10.7980469 7.9625,10.8732422 7.77246094,10.9388672 C7.66582031,10.9757813 7.55917969,11.0085938 7.44980469,11.0373047 C7.371875,11.0578125 7.29257812,11.0769531 7.21328125,11.0947266 C6.86328125,11.1699219 6.49960937,11.2109375 6.125,11.2109375 C5.74628906,11.2109375 5.37714844,11.1699219 5.02167969,11.090625 C4.94648437,11.0742188 4.87265625,11.0564453 4.79882812,11.0359375 C4.68945312,11.0072266 4.58144531,10.9744141 4.47617188,10.9375 C4.2875,10.8732422 4.10292969,10.7966797 3.92382812,10.7119141 C3.78574219,10.6449219 3.65175781,10.5724609 3.52050781,10.4945312 C3.30449219,10.3660156 3.09941406,10.2210937 2.90527344,10.0625 C2.68925781,9.88476562 2.48691406,9.690625 2.30234375,9.48007813 C2.21894531,9.38574219 2.13964844,9.28730469 2.06308594,9.1875 C1.41914063,8.33574219 1.03769531,7.27480469 1.03769531,6.125 C1.03769531,3.31542969 3.3140625,1.0390625 6.12363281,1.0390625 C8.93320312,1.0390625 11.209574,3.31542969 11.209574,6.125 C11.2109375,7.27480469 10.8294922,8.33574219 10.1855469,9.1875 Z" id="形状" fill="url(#linearGradient-2)"></path>
        </g>
    </g>
</svg>
